src/assets/img/aetm-didyouknow-7.svg

<?xml version="1.0" encoding="UTF-8"?>
<svg width="192px" height="66px" viewBox="0 0 192 66" version="1.1" xmlns="http://www.w3.org/2000/svg" xmlns:xlink="http://www.w3.org/1999/xlink">
    <!-- Generator: sketchtool 41 (35326) - http://www.bohemiancoding.com/sketch -->
    <title>D6EB0ED4-2305-4BC0-866E-3D97C38F3765</title>
    <desc>Created with sketchtool.</desc>
    <defs></defs>
    <g id="Page-1" stroke="none" stroke-width="1" fill="none" fill-rule="evenodd" stroke-linecap="round" stroke-linejoin="round">
        <g id="aetm-DIDYOUKNOW-illus" transform="translate(-181.000000, -1421.000000)" stroke="#FEFEFE">
            <g id="DYK-illu8" transform="translate(181.000000, 1421.000000)">
                <path d="M20.2061,32.8589 L4.2431,32.8589 C2.1841,32.8589 0.5001,31.1749 0.5001,29.1159 L0.5001,13.1529 C0.5001,11.0939 2.1841,9.4099 4.2431,9.4099 L20.2061,9.4099 C22.2651,9.4099 23.9491,11.0939 23.9491,13.1529 L23.9491,29.1159 C23.9491,31.1749 22.2651,32.8589 20.2061,32.8589 Z" id="Stroke-1"></path>
                <path d="M25.4633,14.5161 L25.4633,29.2401 C25.4633,32.0631 23.1533,34.3731 20.3303,34.3731 L5.6063,34.3731" id="Stroke-3"></path>
                <path d="M51.1795,32.8589 L35.2165,32.8589 C33.1575,32.8589 31.4735,31.1749 31.4735,29.1159 L31.4735,13.1529 C31.4735,11.0939 33.1575,9.4099 35.2165,9.4099 L51.1795,9.4099 C53.2385,9.4099 54.9225,11.0939 54.9225,13.1529 L54.9225,29.1159 C54.9225,31.1749 53.2385,32.8589 51.1795,32.8589 Z" id="Stroke-5"></path>
                <path d="M56.4367,14.5161 L56.4367,29.2401 C56.4367,32.0631 54.1267,34.3731 51.3037,34.3731 L36.5797,34.3731" id="Stroke-7"></path>
                <path d="M82.1528,32.8589 L66.1898,32.8589 C64.1308,32.8589 62.4468,31.1749 62.4468,29.1159 L62.4468,13.1529 C62.4468,11.0939 64.1308,9.4099 66.1898,9.4099 L82.1528,9.4099 C84.2118,9.4099 85.8958,11.0939 85.8958,13.1529 L85.8958,29.1159 C85.8958,31.1749 84.2118,32.8589 82.1528,32.8589 Z" id="Stroke-9"></path>
                <path d="M87.4101,14.5161 L87.4101,29.2401 C87.4101,32.0631 85.1001,34.3731 82.2771,34.3731 L67.5531,34.3731" id="Stroke-11"></path>
                <path d="M113.1262,32.8589 L97.1632,32.8589 C95.1042,32.8589 93.4202,31.1749 93.4202,29.1159 L93.4202,13.1529 C93.4202,11.0939 95.1042,9.4099 97.1632,9.4099 L113.1262,9.4099 C115.1852,9.4099 116.8692,11.0939 116.8692,13.1529 L116.8692,29.1159 C116.8692,31.1749 115.1852,32.8589 113.1262,32.8589 Z" id="Stroke-13"></path>
                <path d="M147.2229,17.0355 L147.2229,18.0355" id="Stroke-15"></path>
                <path d="M147.2229,22.0311 L147.2229,29.2671 C147.2229,31.2421 145.6069,32.8591 143.6309,32.8591 L127.3659,32.8591 C125.3899,32.8591 123.7739,31.2421 123.7739,29.2671 L123.7739,13.0021 C123.7739,11.0261 125.3899,9.4101 127.3659,9.4101 L140.6329,9.4101" id="Stroke-17" stroke-dasharray="1.998,3.996"></path>
                <path d="M142.6309,9.4098 L143.6309,9.4098" id="Stroke-19"></path>
                <path d="M118.3835,14.5161 L118.3835,29.2401 C118.3835,32.0631 116.0735,34.3731 113.2505,34.3731 L98.5265,34.3731" id="Stroke-21"></path>
                <path d="M20.2061,63.9858 L4.2431,63.9858 C2.1841,63.9858 0.5001,62.3018 0.5001,60.2428 L0.5001,44.2798 C0.5001,42.2208 2.1841,40.5368 4.2431,40.5368 L20.2061,40.5368 C22.2651,40.5368 23.9491,42.2208 23.9491,44.2798 L23.9491,60.2428 C23.9491,62.3018 22.2651,63.9858 20.2061,63.9858 Z" id="Stroke-23"></path>
                <path d="M25.4633,45.643 L25.4633,60.367 C25.4633,63.19 23.1533,65.5 20.3303,65.5 L5.6063,65.5" id="Stroke-25"></path>
                <path d="M51.1795,63.9858 L35.2165,63.9858 C33.1575,63.9858 31.4735,62.3018 31.4735,60.2428 L31.4735,44.2798 C31.4735,42.2208 33.1575,40.5368 35.2165,40.5368 L51.1795,40.5368 C53.2385,40.5368 54.9225,42.2208 54.9225,44.2798 L54.9225,60.2428 C54.9225,62.3018 53.2385,63.9858 51.1795,63.9858 Z" id="Stroke-27"></path>
                <path d="M56.4367,45.643 L56.4367,60.367 C56.4367,63.19 54.1267,65.5 51.3037,65.5 L36.5797,65.5" id="Stroke-29"></path>
                <path d="M82.1528,63.9858 L66.1898,63.9858 C64.1308,63.9858 62.4468,62.3018 62.4468,60.2428 L62.4468,44.2798 C62.4468,42.2208 64.1308,40.5368 66.1898,40.5368 L82.1528,40.5368 C84.2118,40.5368 85.8958,42.2208 85.8958,44.2798 L85.8958,60.2428 C85.8958,62.3018 84.2118,63.9858 82.1528,63.9858 Z" id="Stroke-31"></path>
                <path d="M87.4101,45.643 L87.4101,60.367 C87.4101,63.19 85.1001,65.5 82.2771,65.5 L67.5531,65.5" id="Stroke-33"></path>
                <path d="M113.1262,63.9858 L97.1632,63.9858 C95.1042,63.9858 93.4202,62.3018 93.4202,60.2428 L93.4202,44.2798 C93.4202,42.2208 95.1042,40.5368 97.1632,40.5368 L113.1262,40.5368 C115.1852,40.5368 116.8692,42.2208 116.8692,44.2798 L116.8692,60.2428 C116.8692,62.3018 115.1852,63.9858 113.1262,63.9858 Z" id="Stroke-35"></path>
                <path d="M118.3835,45.643 L118.3835,60.367 C118.3835,63.19 116.0735,65.5 113.2505,65.5 L98.5265,65.5" id="Stroke-37"></path>
                <path d="M143.4798,63.9858 L127.5168,63.9858 C125.4578,63.9858 123.7738,62.3018 123.7738,60.2428 L123.7738,44.2798 C123.7738,42.2208 125.4578,40.5368 127.5168,40.5368 L143.4798,40.5368 C145.5388,40.5368 147.2228,42.2208 147.2228,44.2798 L147.2228,60.2428 C147.2228,62.3018 145.5388,63.9858 143.4798,63.9858 Z" id="Stroke-39"></path>
                <path d="M147.2228,60.3937 C147.2228,62.3697 145.6068,63.9857 143.6308,63.9857 L127.3658,63.9857 C125.3898,63.9857 123.7738,62.3697 123.7738,60.3937 L123.7738,44.1287 C123.7738,42.1527 125.3898,40.5367 127.3658,40.5367 L143.6308,40.5367" id="Stroke-41"></path>
                <path d="M148.737,45.643 L148.737,60.367 C148.737,63.19 146.427,65.5 143.604,65.5 L128.88,65.5" id="Stroke-43"></path>
                <path d="M150.2536,8.7062 C149.2766,7.6202 149.6406,5.8642 150.9966,5.1182 C151.1866,5.0142 151.4026,4.9262 151.6286,4.9372 C152.1916,4.9652 152.4446,5.5362 152.5186,6.0052 C152.7646,7.5692 152.5316,9.1562 152.6046,10.7312 C152.6776,12.3072 153.1186,13.9682 154.4436,15.0862 C154.6306,15.2442 154.8986,15.3982 155.1406,15.3082 C155.3316,15.2362 155.4056,15.0452 155.4526,14.8742 C156.0126,12.8502 155.6526,10.6572 154.4616,8.8372 C156.0086,8.5182 157.4256,7.7682 158.4356,6.7332" id="Stroke-45"></path>
                <path d="M162.2287,6.8147 C161.6137,6.2687 160.5667,6.6187 160.1057,7.2997 C159.6447,7.9807 159.6067,8.8527 159.5837,9.6747 C159.5677,10.2787 159.5547,10.9047 159.7877,11.4627 C160.0217,12.0207 160.5737,12.4937 161.1757,12.4347 C161.6317,12.3897 162.0107,12.0587 162.2887,11.6937 C163.4037,10.2287 163.2437,7.9447 161.9357,6.6487 C161.6437,6.7787 161.8277,7.2887 162.1447,7.3317 C162.4627,7.3737 162.7457,7.1377 162.9637,6.9027 C164.5307,5.2207 165.1847,2.7347 164.6467,0.4997 C164.6747,3.7997 164.9677,7.0977 165.5207,10.3507 C165.5967,10.8017 165.7027,11.2937 166.0647,11.5737 C166.5387,11.9407 167.2757,11.7547 167.6797,11.3117 C168.0827,10.8687 168.2237,10.2477 168.2877,9.6517 C168.3787,8.8197 168.3517,7.9757 168.2077,7.1507 C168.5187,7.7807 169.4997,7.2837 169.8457,6.6717 C170.1907,6.0607 170.6357,5.2417 171.3207,5.3947 C171.2027,6.1757 171.0857,6.9757 171.2357,7.7517 C171.3867,8.5277 171.8617,9.2877 172.6027,9.5617 C173.4267,9.8657 174.3837,9.4867 174.9817,8.8427 C175.5787,8.1987 175.8807,7.3387 176.1057,6.4897 C176.2537,5.9307 176.3717,5.3217 176.1517,4.7857 C175.9327,4.2507 175.2407,3.8767 174.7527,4.1877 C174.5157,4.3377 174.3827,4.6057 174.2827,4.8677 C173.8447,6.0137 173.8337,7.3167 174.2517,8.4707 C174.3577,8.7637 174.5027,9.0617 174.7597,9.2397 C175.1867,9.5357 175.7747,9.4057 176.2467,9.1887 C177.6317,8.5527 178.6847,7.2367 179.0017,5.7457" id="Stroke-47"></path>
                <path d="M164.8606,3.8808 C166.2316,3.9348 167.6146,3.6588 168.8606,3.0828" id="Stroke-49"></path>
                <path d="M159.7711,22.5804 C159.1861,22.3804 158.5201,22.6814 158.1301,23.1604 C157.7391,23.6394 157.5741,24.2614 157.4651,24.8694 C157.2531,26.0414 157.5061,27.6374 158.6831,27.8174 C159.6351,27.9634 160.4021,26.9624 160.5521,26.0114 C160.7021,25.0594 160.4771,24.0774 160.6341,23.1274 C160.8101,24.2054 161.1951,25.5134 162.2681,25.7234 C163.1111,25.8884 163.9291,25.1904 164.2081,24.3774 C164.4861,23.5644 164.3621,22.6754 164.2341,21.8254 C164.7981,25.7024 165.3621,29.5794 165.9251,33.4564" id="Stroke-51"></path>
                <path d="M164.4262,22.7182 C164.1702,22.2772 164.7652,21.7232 165.2572,21.8592 C165.7482,21.9942 166.0222,22.5292 166.0962,23.0332 C166.1702,23.5372 166.1052,24.0562 166.2062,24.5552 C166.3082,25.0552 166.6502,25.5662 167.1572,25.6202 C167.6452,25.6732 168.0872,25.2652 168.2452,24.8002 C168.4032,24.3362 168.3442,23.8292 168.2842,23.3412" id="Stroke-53"></path>
                <path d="M168.7443,21.2186 C169.7323,26.6356 169.8263,28.0406 170.8143,33.4566" id="Stroke-55"></path>
                <path d="M168.8269,22.799 C168.7009,22.212 169.5809,21.844 170.0919,22.159 C170.6039,22.473 170.7929,23.111 170.9569,23.689 C171.1219,24.267 171.3529,24.902 171.8959,25.16 C172.3529,24.863 172.6899,24.384 172.8129,23.853" id="Stroke-57"></path>
                <path d="M172.8132,23.6019 C174.0282,21.6839 174.8892,18.5469 174.7352,16.2809 C174.7202,16.0619 174.6932,15.8279 174.5512,15.6599 C174.2822,15.3419 173.7272,15.4469 173.4582,15.7659 C173.1892,16.0849 173.1342,16.5279 173.1102,16.9449 C173.0152,18.6189 173.2462,20.3109 173.7872,21.8969 C174.0342,22.6209 174.4412,23.4079 175.1832,23.5899 C175.7772,23.7359 176.3912,23.4329 176.8702,23.0539 C177.9892,22.1689 178.7102,20.7979 178.8062,19.3749 C178.6832,19.9239 178.5602,20.4989 178.7022,21.0429 C178.8442,21.5879 179.3432,22.0839 179.9022,22.0209 C180.6172,21.9399 180.9422,21.0949 181.0612,20.3849" id="Stroke-59"></path>
                <path d="M185.1084,11.5655 C184.6174,11.1075 184.7944,10.2325 185.2954,9.7845 C185.7964,9.3365 186.4984,9.2075 187.1634,9.1115 C187.5844,9.0515 188.0214,8.9995 188.4284,9.1215 C189.5104,9.4475 189.8844,10.8585 189.6014,11.9525 C189.3174,13.0465 188.5934,13.9685 188.1494,15.0075 C187.7064,16.0465 187.6164,17.4055 188.4504,18.1685" id="Stroke-61"></path>
                <path d="M179.2507,16.524 C179.1297,15.95 179.1947,15.338 179.4347,14.802" id="Stroke-63"></path>
                <path d="M191.0921,22.9206 C190.6651,22.5186 190.3691,21.9786 190.2601,21.4016" id="Stroke-65"></path>
                <path d="M134.6441,24.5197 C134.5161,23.4067 134.9761,22.3097 135.5471,21.3457 C138.0251,17.1647 143.4991,12.4297 149.7011,12.4397" id="Stroke-67"></path>
                <path d="M132.2924,20.7178 C132.5084,22.5198 133.2914,24.2508 134.5044,25.6008 C135.2024,24.1348 136.4344,22.9318 137.9164,22.2678" id="Stroke-69"></path>
            </g>
        </g>
    </g>
</svg>

<svg width="192" height="66" viewBox="0 0 192 66" xmlns="http://www.w3.org/2000/svg"><g stroke="#FEFEFE" fill="none" fill-rule="evenodd" stroke-linecap="round" stroke-linejoin="round"><path d="M20.206 32.86H4.243C2.183 32.86.5 31.174.5 29.115V13.153c0-2.06 1.684-3.743 3.743-3.743h15.963c2.06 0 3.743 1.684 3.743 3.743v15.963c0 2.06-1.685 3.743-3.744 3.743z"/><path d="M25.463 14.516V29.24c0 2.823-2.31 5.133-5.133 5.133H5.606M51.18 32.86H35.216c-2.06 0-3.743-1.685-3.743-3.744V13.153c0-2.06 1.683-3.743 3.743-3.743h15.962c2.06 0 3.742 1.684 3.742 3.743v15.963c0 2.06-1.683 3.743-3.742 3.743z"/><path d="M56.437 14.516V29.24c0 2.823-2.31 5.133-5.133 5.133H36.58M82.153 32.86H66.19c-2.06 0-3.743-1.685-3.743-3.744V13.153c0-2.06 1.684-3.743 3.743-3.743h15.963c2.06 0 3.743 1.684 3.743 3.743v15.963c0 2.06-1.684 3.743-3.743 3.743z"/><path d="M87.41 14.516V29.24c0 2.823-2.31 5.133-5.133 5.133H67.553M113.126 32.86H97.163c-2.06 0-3.743-1.685-3.743-3.744V13.153c0-2.06 1.684-3.743 3.743-3.743h15.963c2.06 0 3.743 1.684 3.743 3.743v15.963c0 2.06-1.685 3.743-3.744 3.743zM147.223 17.035v1"/><path d="M147.223 22.03v7.237c0 1.975-1.616 3.592-3.592 3.592h-16.264c-1.976 0-3.592-1.618-3.592-3.593V13.002c0-1.976 1.616-3.592 3.592-3.592h13.267" stroke-dasharray="1.998,3.996"/><path d="M142.63 9.41h1M118.383 14.516V29.24c0 2.823-2.31 5.133-5.132 5.133H98.526M20.206 63.986H4.243C2.183 63.986.5 62.302.5 60.243V44.28c0-2.06 1.684-3.743 3.743-3.743h15.963c2.06 0 3.743 1.684 3.743 3.743v15.963c0 2.06-1.685 3.743-3.744 3.743z"/><path d="M25.463 45.643v14.724c0 2.823-2.31 5.133-5.133 5.133H5.606M51.18 63.986H35.216c-2.06 0-3.743-1.684-3.743-3.743V44.28c0-2.06 1.683-3.743 3.743-3.743h15.962c2.06 0 3.742 1.684 3.742 3.743v15.963c0 2.06-1.683 3.743-3.742 3.743z"/><path d="M56.437 45.643v14.724c0 2.823-2.31 5.133-5.133 5.133H36.58M82.153 63.986H66.19c-2.06 0-3.743-1.684-3.743-3.743V44.28c0-2.06 1.684-3.743 3.743-3.743h15.963c2.06 0 3.743 1.684 3.743 3.743v15.963c0 2.06-1.684 3.743-3.743 3.743z"/><path d="M87.41 45.643v14.724c0 2.823-2.31 5.133-5.133 5.133H67.553M113.126 63.986H97.163c-2.06 0-3.743-1.684-3.743-3.743V44.28c0-2.06 1.684-3.743 3.743-3.743h15.963c2.06 0 3.743 1.684 3.743 3.743v15.963c0 2.06-1.685 3.743-3.744 3.743z"/><path d="M118.383 45.643v14.724c0 2.823-2.31 5.133-5.132 5.133H98.526M143.48 63.986h-15.963c-2.06 0-3.743-1.684-3.743-3.743V44.28c0-2.06 1.684-3.743 3.743-3.743h15.963c2.06 0 3.743 1.684 3.743 3.743v15.963c0 2.06-1.684 3.743-3.743 3.743z"/><path d="M147.223 60.394c0 1.976-1.616 3.592-3.592 3.592h-16.264c-1.976 0-3.592-1.616-3.592-3.592V44.13c0-1.977 1.616-3.593 3.592-3.593h16.265"/><path d="M148.737 45.643v14.724c0 2.823-2.31 5.133-5.133 5.133H128.88M150.254 8.706c-.977-1.086-.613-2.842.743-3.588.19-.104.406-.192.632-.18.562.027.815.598.89 1.067.245 1.564.012 3.15.085 4.726.073 1.577.514 3.238 1.84 4.356.186.158.454.312.696.222.192-.072.266-.263.313-.434.56-2.024.2-4.217-.99-6.037 1.546-.32 2.963-1.07 3.973-2.104M162.23 6.815c-.616-.546-1.663-.196-2.124.485-.46.68-.5 1.553-.522 2.375-.016.604-.03 1.23.204 1.788.234.558.786 1.03 1.388.972.456-.045.835-.376 1.113-.74 1.114-1.466.954-3.75-.354-5.046-.292.13-.108.64.21.682.317.042.6-.194.818-.43 1.567-1.68 2.22-4.167 1.683-6.402.028 3.3.32 6.598.874 9.85.077.452.183.944.545 1.224.474.367 1.21.18 1.615-.262.403-.443.544-1.064.608-1.66.09-.832.064-1.676-.08-2.5.31.63 1.292.132 1.638-.48.345-.61.79-1.43 1.475-1.277-.117.78-.234 1.58-.084 2.357.15.776.626 1.536 1.367 1.81.824.304 1.78-.075 2.38-.72.596-.643.898-1.503 1.123-2.352.148-.56.266-1.168.046-1.704-.22-.535-.91-.91-1.4-.598-.236.15-.37.418-.47.68-.437 1.146-.448 2.45-.03 3.603.106.294.25.592.508.77.427.296 1.015.166 1.487-.05 1.385-.637 2.438-1.953 2.755-3.444M164.86 3.88c1.372.055 2.755-.22 4-.797M159.77 22.58c-.584-.2-1.25.1-1.64.58-.39.48-.556 1.1-.665 1.71-.212 1.17.04 2.767 1.218 2.947.952.146 1.72-.855 1.87-1.806.15-.95-.076-1.933.08-2.883.177 1.078.562 2.386 1.635 2.596.843.165 1.66-.533 1.94-1.346.278-.813.154-1.702.026-2.552.564 3.877 1.128 7.754 1.69 11.63"/><path d="M164.426 22.718c-.256-.44.34-.995.83-.86.492.136.766.67.84 1.175.074.504.01 1.023.11 1.522.102.5.444 1.01.95 1.065.49.053.93-.355 1.09-.82.157-.464.098-.97.038-1.46M168.744 21.22c.988 5.416 1.082 6.82 2.07 12.237"/><path d="M168.827 22.8c-.126-.588.754-.956 1.265-.64.512.313.7.95.865 1.53.165.577.396 1.212.94 1.47.456-.297.793-.776.916-1.307M172.813 23.602c1.215-1.918 2.076-5.055 1.922-7.32-.015-.22-.042-.454-.184-.622-.268-.318-.823-.213-1.092.106-.27.32-.324.762-.348 1.18-.095 1.673.136 3.365.677 4.95.247.725.654 1.512 1.396 1.694.594.146 1.208-.157 1.687-.536 1.12-.885 1.84-2.256 1.936-3.68-.123.55-.246 1.125-.104 1.67.142.544.64 1.04 1.2.977.715-.08 1.04-.925 1.16-1.635M185.108 11.566c-.49-.46-.314-1.334.187-1.782.5-.448 1.203-.577 1.868-.673.42-.058.858-.11 1.265.01 1.082.328 1.456 1.74 1.173 2.833-.283 1.094-1.007 2.016-1.45 3.055-.444 1.04-.534 2.398.3 3.16M179.25 16.524c-.12-.574-.055-1.186.185-1.722M191.092 22.92c-.427-.4-.723-.94-.832-1.518M134.644 24.52c-.128-1.113.332-2.21.903-3.174 2.478-4.18 7.952-8.916 14.154-8.906"/><path d="M132.292 20.718c.216 1.802 1 3.533 2.212 4.883.698-1.465 1.93-2.668 3.412-3.332"/></g></svg>
